X: 30412
T: Old Timer, The
R: barndance
M: 4/4
K: Dmajor
dB|:AFBF AFdB|AFBF GEEB|AFBF A2ag|1 f2d2 B2dB:|2 f2d2 d2fg||
a2fa gfeg|f2d2 B2A2|abaf gf (3efg|f2d2 d2fg|
a2fa gfeg|f2d2 B2dB|AFBF A2ag|f2d2 B2||

